X:1
T:Title
%%score ( 1 2 ) ( 3 4 )
L:1/8
M:3/2
K:D
V:1 treble nm="Grand Piano, Unnamed-000"
V:2 treble 
V:3 bass nm="Choir Pad, Rest (Bradbury)"
V:4 bass 
V:1
 [DA]2 [DA]2 [EA]2 [Fd]4 [FA]2- | [FA]2 [DA]2 [DF]2 [CE]6 | [EG]2 [EG]2 G2 [Ge]4 [Gc]2- | %3
w: By~William~Batchelder~Bradbury,~1843 * * * *|||
 [Gc]2 [GB]2 [Gc]2 [Fd]6 | [DA]2 [FA]2 [EA]2 [DA]4 [DF]2- | [DF]2 [DG]2 [DA]2 [DB]6 | z12 | %7
w: ||||
 z2 .G6 z4 | z12 |] %9
w: ||
V:2
 x12 | x12 | x12 | x12 | x12 | x12 | [GB]2 [Gd]2 [GB]2 [FA]2 [DF]2 [DE]2- | [DE]2 D2 C2 [DF]6- | %8
 [DF]4 z4 z4 |] %9
V:3
 [D,F,]2 [D,F,]2 [D,G,]2 [D,A,]4 [D,D]2- | [D,D]2 [F,A,]2 [D,A,]2 [A,,A,]6 | %2
 [E,B,]2 [E,B,]2 [E,D]2 [A,C]4 [A,E]2- | [A,E]2 [B,D]2 [A,E]2 [D,D]6 | %4
 [D,F,]2 [D,A,]2 [D,G,]2 [D,F,]4 [D,A,]2- | [D,A,]2 [B,,G,]2 [A,,F,]2 [G,,G,]6 | %6
 [G,D]2 [G,B,]2 [G,D]2 [D,D]2 [D,A,]2 [A,,A,]2- | [A,,A,]2 E,2 A,2 [D,A,]6- | [D,A,]4 z4 z4 |] %9
V:4
 x12 | x12 | x12 | x12 | x12 | x12 | x12 | z2 .A,,6 z4 | x12 |] %9

